svg/color/fiat.svg

<?xml version="1.0" encoding="UTF-8" ?>
<!DOCTYPE svg PUBLIC "-//W3C//DTD SVG 1.1//EN" "http://www.w3.org/Graphics/SVG/1.1/DTD/svg11.dtd">
<svg width="250pt" height="250pt" viewBox="0 0 250 250" version="1.1" xmlns="http://www.w3.org/2000/svg">
<g id="#ffffffff">
<path fill="#ffffff" opacity="1.00" d=" M 0.00 0.00 L 112.78 0.00 C 108.58 0.93 104.34 1.62 100.12 2.42 C 73.29 8.04 48.16 22.40 30.44 43.41 C 24.14 50.36 19.04 58.28 14.50 66.46 C 10.12 74.37 7.35 83.02 4.54 91.57 C 1.75 99.97 1.02 108.83 0.00 117.57 L 0.00 0.00 Z" />
<path fill="#ffffff" opacity="1.00" d=" M 132.43 0.00 L 250.00 0.00 L 250.00 116.59 C 249.09 108.73 248.17 100.82 245.94 93.20 C 238.02 62.91 218.28 35.87 191.69 19.30 C 174.03 7.89 153.34 1.56 132.43 0.00 Z" />
<path fill="#ffffff" opacity="1.00" d=" M 119.32 18.15 C 123.35 17.50 127.45 17.63 131.48 18.23 C 168.53 19.69 203.56 42.91 220.16 75.93 C 224.49 84.54 228.27 93.57 229.89 103.12 C 231.30 109.65 231.51 116.34 232.21 122.96 C 232.53 127.65 231.53 132.29 231.32 136.97 C 229.60 155.70 222.27 173.82 210.92 188.78 C 197.01 208.02 176.20 221.91 153.42 228.36 C 143.86 231.11 133.86 231.75 123.98 232.27 C 116.71 231.49 109.32 231.44 102.17 229.78 C 92.85 227.36 83.59 224.44 75.08 219.85 C 58.76 210.98 44.41 198.21 34.53 182.41 C 25.50 167.83 19.24 151.22 18.43 133.98 C 17.01 125.11 18.36 116.20 19.29 107.36 C 22.48 87.31 31.84 68.43 45.32 53.32 C 64.07 32.51 91.22 19.13 119.32 18.15 M 79.47 71.72 C 79.58 73.25 80.19 74.84 81.90 75.09 C 85.80 76.60 90.13 77.75 92.97 81.02 C 96.05 84.57 96.38 89.53 96.40 94.01 C 96.31 101.76 96.53 109.52 96.24 117.27 C 90.80 117.50 85.35 117.44 79.90 117.33 C 79.76 118.99 79.66 120.65 79.57 122.31 C 107.37 122.77 135.19 122.34 162.99 122.55 C 165.30 122.54 167.63 122.64 169.93 122.28 C 171.18 121.10 170.32 119.05 170.58 117.51 C 153.70 117.12 136.80 117.70 119.92 117.24 C 119.68 103.42 119.62 89.58 119.94 75.76 C 126.95 75.40 133.99 75.63 141.01 75.57 C 145.22 75.48 149.49 76.52 152.90 79.07 C 160.27 84.28 163.99 93.06 166.32 101.49 C 166.93 103.22 167.55 106.28 170.10 105.14 C 170.79 94.00 170.35 82.79 170.29 71.63 C 147.86 71.24 125.43 71.58 103.00 71.47 C 95.16 71.59 87.30 71.20 79.47 71.72 M 79.58 133.69 C 79.67 135.36 79.77 137.03 79.90 138.70 C 85.34 138.61 90.79 138.54 96.23 138.76 C 96.52 146.83 96.32 154.92 96.38 163.00 C 96.30 167.79 95.51 173.29 91.56 176.51 C 87.96 179.15 83.42 179.95 79.43 181.86 C 79.60 182.55 79.93 183.94 80.10 184.64 C 99.31 184.53 118.52 184.63 137.74 184.60 C 137.69 183.55 137.65 182.51 137.61 181.46 C 132.76 179.98 127.19 179.34 123.56 175.43 C 120.20 171.83 120.11 166.61 119.84 161.99 C 119.73 154.26 119.71 146.52 119.87 138.79 C 136.73 138.33 153.60 138.94 170.46 138.50 C 170.53 136.99 170.61 135.49 170.70 133.98 C 168.16 133.52 165.57 133.37 162.99 133.44 C 135.19 133.68 107.37 133.20 79.58 133.69 Z" />
<path fill="#ffffff" opacity="1.00" d=" M 242.59 167.59 C 246.82 156.32 248.58 144.33 250.00 132.44 L 250.00 250.00 L 133.41 250.00 C 150.56 248.49 167.54 243.99 182.74 235.83 C 210.41 221.78 232.10 196.73 242.59 167.59 Z" />
<path fill="#ffffff" opacity="1.00" d=" M 0.00 133.40 C 1.57 150.54 6.03 167.52 14.19 182.73 C 26.59 207.20 47.67 226.89 72.42 238.52 C 79.44 241.51 86.64 244.14 94.00 246.18 C 101.68 248.37 109.71 248.69 117.55 250.00 L 0.00 250.00 L 0.00 133.40 Z" />
</g>
<g id="#ff6080ff">
<path fill="#ff6080" opacity="1.00" d=" M 112.78 0.00 L 132.43 0.00 C 153.34 1.56 174.03 7.89 191.69 19.30 C 218.28 35.87 238.02 62.91 245.94 93.20 C 248.17 100.82 249.09 108.73 250.00 116.59 L 250.00 132.44 C 248.58 144.33 246.82 156.32 242.59 167.59 C 232.10 196.73 210.41 221.78 182.74 235.83 C 167.54 243.99 150.56 248.49 133.41 250.00 L 117.55 250.00 C 109.71 248.69 101.68 248.37 94.00 246.18 C 86.64 244.14 79.44 241.51 72.42 238.52 C 47.67 226.89 26.59 207.20 14.19 182.73 C 6.03 167.52 1.57 150.54 0.00 133.40 L 0.00 117.57 C 1.02 108.83 1.75 99.97 4.54 91.57 C 7.35 83.02 10.12 74.37 14.50 66.46 C 19.04 58.28 24.14 50.36 30.44 43.41 C 48.16 22.40 73.29 8.04 100.12 2.42 C 104.34 1.62 108.58 0.93 112.78 0.00 M 119.32 18.15 C 91.22 19.13 64.07 32.51 45.32 53.32 C 31.84 68.43 22.48 87.31 19.29 107.36 C 18.36 116.20 17.01 125.11 18.43 133.98 C 19.24 151.22 25.50 167.83 34.53 182.41 C 44.41 198.21 58.76 210.98 75.08 219.85 C 83.59 224.44 92.85 227.36 102.17 229.78 C 109.32 231.44 116.71 231.49 123.98 232.27 C 133.86 231.75 143.86 231.11 153.42 228.36 C 176.20 221.91 197.01 208.02 210.92 188.78 C 222.27 173.82 229.60 155.70 231.32 136.97 C 231.53 132.29 232.53 127.65 232.21 122.96 C 231.51 116.34 231.30 109.65 229.89 103.12 C 228.27 93.57 224.49 84.54 220.16 75.93 C 203.56 42.91 168.53 19.69 131.48 18.23 C 127.45 17.63 123.35 17.50 119.32 18.15 Z" />
<path fill="#ff6080" opacity="1.00" d=" M 79.47 71.72 C 87.30 71.20 95.16 71.59 103.00 71.47 C 125.43 71.58 147.86 71.24 170.29 71.63 C 170.35 82.79 170.79 94.00 170.10 105.14 C 167.55 106.28 166.93 103.22 166.32 101.49 C 163.99 93.06 160.27 84.28 152.90 79.07 C 149.49 76.52 145.22 75.48 141.01 75.57 C 133.99 75.63 126.95 75.40 119.94 75.76 C 119.62 89.58 119.68 103.42 119.92 117.24 C 136.80 117.70 153.70 117.12 170.58 117.51 C 170.32 119.05 171.18 121.10 169.93 122.28 C 167.63 122.64 165.30 122.54 162.99 122.55 C 135.19 122.34 107.37 122.77 79.57 122.31 C 79.66 120.65 79.76 118.99 79.90 117.33 C 85.35 117.44 90.80 117.50 96.24 117.27 C 96.53 109.52 96.31 101.76 96.40 94.01 C 96.38 89.53 96.05 84.57 92.97 81.02 C 90.13 77.75 85.80 76.60 81.90 75.09 C 80.19 74.84 79.58 73.25 79.47 71.72 Z" />
<path fill="#ff6080" opacity="1.00" d=" M 79.58 133.69 C 107.37 133.20 135.19 133.68 162.99 133.44 C 165.57 133.37 168.16 133.52 170.70 133.98 C 170.61 135.49 170.53 136.99 170.46 138.50 C 153.60 138.94 136.73 138.33 119.87 138.79 C 119.71 146.52 119.73 154.26 119.84 161.99 C 120.11 166.61 120.20 171.83 123.56 175.43 C 127.19 179.34 132.76 179.98 137.61 181.46 C 137.65 182.51 137.69 183.55 137.74 184.60 C 118.52 184.63 99.31 184.53 80.10 184.64 C 79.93 183.94 79.60 182.55 79.43 181.86 C 83.42 179.95 87.96 179.15 91.56 176.51 C 95.51 173.29 96.30 167.79 96.38 163.00 C 96.32 154.92 96.52 146.83 96.23 138.76 C 90.79 138.54 85.34 138.61 79.90 138.70 C 79.77 137.03 79.67 135.36 79.58 133.69 Z" />
</g>
</svg>

<?xml version="1.0" encoding="utf-8"?>
<!-- Generator: Adobe Illustrator 26.0.3, SVG Export Plug-In . SVG Version: 6.00 Build 0)  -->
<svg version="1.1" id="Layer_1" xmlns="http://www.w3.org/2000/svg" xmlns:xlink="http://www.w3.org/1999/xlink" x="0px" y="0px"
	 viewBox="0 0 250 250" style="enable-background:new 0 0 250 250;" xml:space="preserve">
<style type="text/css">
	.st0{fill:#FFFFFF;}
	.st1{fill:#FF6080;}
</style>
<g id="_x23_ffffffff">
	<path class="st0" d="M119.3,18.1c4-0.6,8.1-0.5,12.2,0.1c37.1,1.5,72.1,24.7,88.7,57.7c4.3,8.6,8.1,17.6,9.7,27.2
		c1.4,6.5,1.6,13.2,2.3,19.8c0.3,4.7-0.7,9.3-0.9,14c-1.7,18.7-9.1,36.9-20.4,51.8c-13.9,19.2-34.7,33.1-57.5,39.6
		c-9.6,2.8-19.6,3.4-29.4,3.9c-7.3-0.8-14.7-0.8-21.8-2.5c-9.3-2.4-18.6-5.3-27.1-9.9c-16.3-8.9-30.7-21.6-40.6-37.4
		c-9-14.6-15.3-31.2-16.1-48.4c-1.4-8.9-0.1-17.8,0.9-26.6c3.2-20.1,12.5-38.9,26-54C64.1,32.5,91.2,19.1,119.3,18.1 M79.5,71.7
		c0.1,1.5,0.7,3.1,2.4,3.4c3.9,1.5,8.2,2.7,11.1,5.9c3.1,3.6,3.4,8.5,3.4,13c-0.1,7.8,0.1,15.5-0.2,23.3c-5.4,0.2-10.9,0.2-16.3,0.1
		c-0.1,1.7-0.2,3.3-0.3,5c27.8,0.5,55.6,0,83.4,0.2c2.3,0,4.6,0.1,6.9-0.3c1.2-1.2,0.4-3.2,0.7-4.8c-16.9-0.4-33.8,0.2-50.7-0.3
		c-0.2-13.8-0.3-27.7,0-41.5c7-0.4,14.1-0.1,21.1-0.2c4.2-0.1,8.5,0.9,11.9,3.5c7.4,5.2,11.1,14,13.4,22.4c0.6,1.7,1.2,4.8,3.8,3.7
		c0.7-11.1,0.2-22.3,0.2-33.5c-22.4-0.4-44.9,0-67.3-0.2C95.2,71.6,87.3,71.2,79.5,71.7 M79.6,133.7c0.1,1.7,0.2,3.3,0.3,5
		c5.4-0.1,10.9-0.2,16.3,0.1c0.3,8.1,0.1,16.2,0.1,24.2c-0.1,4.8-0.9,10.3-4.8,13.5c-3.6,2.6-8.1,3.4-12.1,5.4
		c0.2,0.7,0.5,2.1,0.7,2.8c19.2-0.1,38.4,0,57.6,0c-0.1-1.1-0.1-2.1-0.1-3.1c-4.9-1.5-10.4-2.1-14.1-6c-3.4-3.6-3.4-8.8-3.7-13.4
		c-0.1-7.7-0.1-15.5,0-23.2c16.9-0.5,33.7,0.2,50.6-0.3c0.1-1.5,0.1-3,0.2-4.5c-2.5-0.5-5.1-0.6-7.7-0.5
		C135.2,133.7,107.4,133.2,79.6,133.7z"/>
</g>
<g id="_x23_ff6080ff">
	<path class="st1" d="M112.8,0h19.6c20.9,1.6,41.6,7.9,59.3,19.3c26.6,16.6,46.3,43.6,54.2,73.9c2.2,7.6,3.1,15.5,4.1,23.4v15.9
		c-1.4,11.9-3.2,23.9-7.4,35.1c-10.5,29.1-32.2,54.2-59.8,68.2c-15.2,8.2-32.2,12.7-49.3,14.2h-15.9c-7.8-1.3-15.9-1.6-23.6-3.8
		c-7.4-2-14.6-4.7-21.6-7.7c-24.8-11.6-45.8-31.3-58.2-55.8C6,167.5,1.6,150.5,0,133.4v-15.8c1-8.7,1.8-17.6,4.5-26
		c2.8-8.6,5.6-17.2,10-25.1c4.5-8.2,9.6-16.1,15.9-23c17.7-21,42.8-35.4,69.7-41C104.3,1.6,108.6,0.9,112.8,0 M119.3,18.1
		c-28.1,1-55.2,14.4-74,35.2c-13.5,15.1-22.8,34-26,54c-0.9,8.8-2.3,17.8-0.9,26.6c0.8,17.2,7.1,33.9,16.1,48.4
		c9.9,15.8,24.2,28.6,40.6,37.4c8.5,4.6,17.8,7.5,27.1,9.9c7.2,1.7,14.5,1.7,21.8,2.5c9.9-0.5,19.9-1.2,29.4-3.9
		c22.8-6.4,43.6-20.3,57.5-39.6c11.4-15,18.7-33.1,20.4-51.8c0.2-4.7,1.2-9.3,0.9-14c-0.7-6.6-0.9-13.3-2.3-19.8
		c-1.6-9.6-5.4-18.6-9.7-27.2c-16.6-33-51.6-56.2-88.7-57.7C127.4,17.6,123.3,17.5,119.3,18.1z"/>
	<path class="st1" d="M79.5,71.7c7.8-0.5,15.7-0.1,23.5-0.2c22.4,0.1,44.9-0.2,67.3,0.2c0.1,11.2,0.5,22.4-0.2,33.5
		c-2.6,1.1-3.2-1.9-3.8-3.7c-2.3-8.4-6.1-17.2-13.4-22.4c-3.4-2.6-7.7-3.6-11.9-3.5c-7,0.1-14.1-0.2-21.1,0.2
		c-0.3,13.8-0.3,27.7,0,41.5c16.9,0.5,33.8-0.1,50.7,0.3c-0.3,1.5,0.6,3.6-0.7,4.8c-2.3,0.4-4.6,0.3-6.9,0.3
		c-27.8-0.2-55.6,0.2-83.4-0.2c0.1-1.7,0.2-3.3,0.3-5c5.4,0.1,10.9,0.2,16.3-0.1c0.3-7.8,0.1-15.5,0.2-23.3c0-4.5-0.3-9.4-3.4-13
		c-2.8-3.3-7.2-4.4-11.1-5.9C80.2,74.8,79.6,73.2,79.5,71.7z"/>
	<path class="st1" d="M79.6,133.7c27.8-0.5,55.6,0,83.4-0.2c2.6-0.1,5.2,0.1,7.7,0.5c-0.1,1.5-0.2,3-0.2,4.5
		c-16.9,0.4-33.7-0.2-50.6,0.3c-0.2,7.7-0.1,15.5,0,23.2c0.3,4.6,0.4,9.8,3.7,13.4c3.6,3.9,9.2,4.6,14.1,6c0,1,0.1,2.1,0.1,3.1
		c-19.2,0-38.4-0.1-57.6,0c-0.2-0.7-0.5-2.1-0.7-2.8c4-1.9,8.5-2.7,12.1-5.4c4-3.2,4.7-8.7,4.8-13.5c-0.1-8.1,0.1-16.2-0.1-24.2
		c-5.4-0.2-10.9-0.1-16.3-0.1C79.8,137,79.7,135.4,79.6,133.7z"/>
</g>
</svg>
